X: 145
T:Simon Thoumire's Jig
R:jig
C:John McCusker
Z:added by Alf 
M:6/8
L:1/8
K:G
|:BA|\
G3 EDE|GA^A Bde|gfd dee|dBG ABA|
G3 EDE|GA^A Bde|gfd dee|dBA G:|
|:Bd|\
gfd e2g-|gfd edg|edB BAG|ABG E2D|
G3 EDE|GA^A Bde|gfd dee|dBA G:|
